img/svg/products-decoration-desk-4.svg

<svg width="492" height="313" viewBox="0 0 492 313" fill="none" xmlns="http://www.w3.org/2000/svg">
<g opacity="0.1">
<path d="M292.283 508.046L288.278 506.139L290.376 501.753L356.168 468.952L389.16 403.16L454.952 370.168L487.753 304.376L492.139 302.278L494.046 306.283L490.995 307.809L458.194 373.601L392.402 406.402L359.601 472.194L293.809 504.995L292.283 508.046Z" fill="#B69D6D"/>
<path d="M264.631 508.046L260.627 506.139L271.878 483.255L337.67 450.454L370.662 384.662L436.454 351.67L469.255 285.878L492.139 274.627L494.046 278.631L472.497 289.311L439.696 355.103L373.904 387.904L341.103 453.696L275.311 486.497L264.631 508.046Z" fill="#B69D6D"/>
<path d="M236.789 508.047L232.784 506.14L253.38 464.757L319.173 431.956L352.164 366.164L417.956 333.173L450.757 267.38L492.14 246.784L494.047 250.789L453.999 270.813L421.198 336.605L355.406 369.406L322.605 435.198L256.813 467.999L236.789 508.047Z" fill="#B69D6D"/>
<path d="M209.137 508.047L205.133 506.14L234.882 446.259L300.674 413.458L333.666 347.666L399.458 314.674L432.259 248.882L492.14 219.133L494.047 223.137L435.501 252.315L402.7 318.107L336.908 350.908L304.107 416.7L238.315 449.501L209.137 508.047Z" fill="#B69D6D"/>
<path d="M162.606 509L160.508 504.995L183.583 493.553L216.384 427.761L282.176 394.96L315.167 329.167L380.96 296.176L413.761 230.384L479.553 197.583L490.995 174.508L495 176.606L482.795 200.825L417.193 233.816L384.202 299.609L318.409 332.409L285.609 398.202L219.816 431.193L186.825 496.795L162.606 509Z" fill="#B69D6D"/>
<path d="M107.111 509L105.014 504.995L165.085 475.055L197.886 409.263L263.678 376.462L296.67 310.67L362.462 277.678L395.263 211.886L461.055 179.085L490.995 119.014L495 121.111L464.297 182.327L398.695 215.318L365.704 281.111L299.912 313.912L267.111 379.704L201.318 412.695L168.327 478.297L107.111 509Z" fill="#B69D6D"/>
<path d="M76.5991 508.047L72.5943 506.14L80.7945 489.358L146.587 456.557L179.388 390.765L245.18 357.964L278.171 292.171L343.964 259.18L376.765 193.388L442.557 160.587L475.358 94.7945L492.14 86.5943L494.047 90.5991L478.79 98.2272L445.799 163.829L380.197 196.82L347.206 262.613L281.413 295.413L248.613 361.206L182.82 394.197L149.829 459.799L84.2272 492.79L76.5991 508.047Z" fill="#B69D6D"/>
<path d="M48.7564 508.047L44.7517 506.14L62.2963 470.86L128.089 438.059L160.889 372.266L226.682 339.466L259.673 273.673L325.466 240.682L358.266 174.889L424.059 142.089L456.86 76.2963L492.14 58.7517L494.047 62.7565L460.292 79.729L427.301 145.331L361.699 178.322L328.708 244.114L262.915 276.915L230.114 342.708L164.322 375.699L131.331 441.301L65.7289 474.292L48.7564 508.047Z" fill="#B69D6D"/>
<path d="M21.1046 508.047L17.0999 506.139L43.7982 452.361L109.591 419.561L142.391 353.768L208.184 320.967L241.175 255.175L306.967 222.184L339.768 156.391L405.561 123.591L438.361 57.7982L492.139 31.0999L494.047 35.1046L441.794 61.2308L408.803 127.023L343.201 159.824L310.209 225.616L244.417 258.417L211.616 324.209L145.824 357.201L113.023 422.803L47.2308 455.794L21.1046 508.047Z" fill="#B69D6D"/>
<path d="M-16.2731 509L-18.1801 504.995L-7.50075 499.656L25.3001 433.863L91.0924 401.063L123.893 335.27L189.686 302.469L222.677 236.677L288.469 203.686L321.27 137.893L387.063 105.092L419.863 39.3001L485.656 6.49928L490.995 -4.18005L495 -2.27303L489.088 9.74122L423.296 42.7327L390.304 108.525L324.703 141.326L291.711 207.118L225.919 239.919L193.118 305.711L127.326 338.703L94.525 404.304L28.7327 437.296L-4.25881 503.088L-16.2731 509Z" fill="#B69D6D"/>
<path d="M-63.9488 505.186L-66.0465 501.181L-25.999 481.157L6.80183 415.365L72.5941 382.564L105.395 316.772L171.187 283.971L204.179 218.179L269.971 185.187L302.772 119.395L368.564 86.5941L401.365 20.8018L467.157 -11.999L487.181 -52.0465L491.186 -49.9488L470.59 -8.75706L404.798 24.2345L371.806 90.0268L306.205 122.828L273.213 188.62L207.421 221.421L174.62 287.213L108.828 320.205L76.0268 385.806L10.2345 418.798L-22.757 484.59L-63.9488 505.186Z" fill="#B69D6D"/>
<path d="M-63.9488 477.343L-66.0465 473.529L-44.4971 462.659L-11.6963 396.867L54.0961 364.066L86.8969 298.274L152.689 265.473L185.681 199.681L251.473 166.689L284.274 100.897L350.066 68.096L382.867 2.30368L448.659 -30.4971L459.529 -52.0465L463.343 -49.9488L452.092 -27.2552L386.3 5.73632L353.308 71.5287L287.707 104.329L254.715 170.122L188.923 202.923L156.122 268.715L90.3295 301.706L57.5287 367.308L-8.26365 400.3L-41.2552 466.092L-63.9488 477.343Z" fill="#B69D6D"/>
<path d="M-63.9488 449.692L-66.0465 445.687L-62.9952 444.161L-30.1944 378.369L35.5979 345.568L68.3987 279.776L134.191 246.975L167.183 181.183L232.975 148.191L265.776 82.3987L331.568 49.5979L364.369 -16.1945L430.161 -48.9953L431.687 -52.0465L435.692 -49.9488L433.594 -45.7533L367.801 -12.7618L334.81 53.0305L269.208 85.8313L236.217 151.624L170.424 184.424L137.624 250.217L71.8314 283.208L39.0305 348.81L-26.7618 381.801L-59.7533 447.594L-63.9488 449.692Z" fill="#B69D6D"/>
<path d="M-62.9952 398.583L-67 396.676L-48.6926 359.871L17.0998 327.07L50.0913 261.278L115.693 228.477L148.684 162.684L214.477 129.693L247.278 64.0913L313.07 31.0998L345.871 -34.6926L382.676 -53L384.583 -48.9952L349.303 -31.2599L316.312 34.5324L250.71 67.3332L217.719 133.126L151.926 165.926L119.126 231.719L53.3332 264.71L20.5324 330.312L-45.2599 363.303L-62.9952 398.583Z" fill="#B69D6D"/>
<path d="M-63.9488 344.805L-66.0465 340.8L-1.39836 308.572L31.5932 242.779L97.1948 209.979L130.186 144.186L195.979 111.195L228.779 45.5931L294.572 12.6016L326.8 -52.0465L330.805 -49.9488L297.814 16.0342L232.212 48.8351L199.221 114.627L133.428 147.428L100.627 213.221L34.8351 246.212L2.03428 311.814L-63.9488 344.805Z" fill="#B69D6D"/>
<path d="M-63.9488 317.153L-66.0465 313.149L-19.8965 290.074L13.095 224.281L78.6967 191.48L111.688 125.688L177.48 92.6966L210.281 27.095L276.074 -5.89653L299.149 -52.0465L303.153 -49.9488L279.316 -2.46388L213.714 30.3369L180.722 96.1293L114.93 128.93L82.1293 194.722L16.337 227.714L-16.4639 293.316L-63.9488 317.153Z" fill="#B69D6D"/>
<path d="M-63.9488 289.311L-66.0465 285.306L-38.3946 271.575L-5.40311 205.783L60.1985 172.982L93.19 107.19L158.982 74.1985L191.783 8.59686L257.576 -24.3947L271.306 -52.0465L275.311 -49.9488L260.817 -20.962L195.216 11.8388L162.224 77.6311L96.432 110.432L63.6311 176.224L-2.16117 209.216L-34.962 274.817L-63.9488 289.311Z" fill="#B69D6D"/>
<path d="M-63.9488 261.659L-66.0465 257.654L-56.8928 253.077L-23.9012 187.285L41.7004 154.484L74.6919 88.6919L140.484 55.7003L173.285 -9.90128L239.077 -42.8928L243.654 -52.0465L247.659 -49.9488L242.319 -39.4602L176.718 -6.65934L143.726 59.133L77.9338 91.9338L45.133 157.726L-20.6593 190.718L-53.4601 256.319L-63.9488 261.659Z" fill="#B69D6D"/>
<path d="M-62.9952 219.895L-67 217.797L-42.3994 168.787L23.2022 135.986L56.1938 70.1938L121.986 37.2022L154.787 -28.3994L203.797 -53L205.895 -48.9952L158.22 -25.1574L125.228 40.6349L59.4357 73.4357L26.6349 139.228L-39.1574 172.22L-62.9952 219.895Z" fill="#B69D6D"/>
<path d="M-62.9952 164.401L-67 162.303L-60.8975 150.289L4.7041 117.488L37.6956 51.6956L103.488 18.7041L136.289 -46.8975L148.303 -53L150.401 -48.9952L139.721 -43.6556L106.73 22.1367L40.9376 54.9376L8.13675 120.73L-57.6556 153.721L-62.9952 164.401Z" fill="#B69D6D"/>
<path d="M-63.9488 129.121L-66.0465 125.116L-13.794 98.9898L19.1975 33.1975L84.9898 0.205948L111.116 -52.0465L115.121 -49.9488L88.2318 3.6386L22.4394 36.4394L-10.3614 102.232L-63.9488 129.121Z" fill="#B69D6D"/>
<path d="M-63.9488 101.278L-66.0465 97.2735L-32.2921 80.4917L0.699371 14.6993L66.4917 -18.2922L83.2735 -52.0465L87.2783 -49.9488L69.7336 -14.8595L3.94131 17.9413L-28.8595 83.7336L-63.9488 101.278Z" fill="#B69D6D"/>
<path d="M-63.9488 73.6264L-66.0465 69.6216L-50.7903 61.9935L-17.7988 -3.79881L47.9936 -36.7903L55.6217 -52.0465L59.6264 -49.9488L51.2355 -33.3577L-14.5568 -0.556862L-47.3576 65.2355L-63.9488 73.6264Z" fill="#B69D6D"/>
<path d="M-62.9952 41.0163L-67 39.1093L-36.2969 -22.2969L25.1093 -53L27.0163 -48.9952L-33.055 -19.055L-62.9952 41.0163Z" fill="#B69D6D"/>
</g>
</svg>

<svg width="492" height="313" viewBox="0 0 492 313" fill="none" xmlns="http://www.w3.org/2000/svg"><g opacity=".1" fill="#B69D6D"><path d="M292.283 508.046l-4.005-1.907 2.098-4.386 65.792-32.801 32.992-65.792 65.792-32.992 32.801-65.792 4.386-2.098 1.907 4.005-3.051 1.526-32.801 65.792-65.792 32.801-32.801 65.792-65.792 32.801-1.526 3.051z"/><path d="M264.631 508.046l-4.004-1.907 11.251-22.884 65.792-32.801 32.992-65.792 65.792-32.992 32.801-65.792 22.884-11.251 1.907 4.004-21.549 10.68-32.801 65.792-65.792 32.801-32.801 65.792-65.792 32.801-10.68 21.549z"/><path d="M236.789 508.047l-4.005-1.907 20.596-41.383 65.793-32.801 32.991-65.792 65.792-32.991 32.801-65.793 41.383-20.596 1.907 4.005-40.048 20.024-32.801 65.792-65.792 32.801-32.801 65.792-65.792 32.801-20.024 40.048z"/><path d="M209.137 508.047l-4.004-1.907 29.749-59.881 65.792-32.801 32.992-65.792 65.792-32.992 32.801-65.792 59.881-29.749 1.907 4.004-58.546 29.178-32.801 65.792-65.792 32.801-32.801 65.792-65.792 32.801-29.178 58.546z"/><path d="M162.606 509l-2.098-4.005 23.075-11.442 32.801-65.792 65.792-32.801 32.991-65.793 65.793-32.991 32.801-65.792 65.792-32.801 11.442-23.075 4.005 2.098-12.205 24.219-65.602 32.991-32.991 65.793-65.793 32.8-32.8 65.793-65.793 32.991-32.991 65.602L162.606 509z"/><path d="M107.111 509l-2.097-4.005 60.071-29.94 32.801-65.792 65.792-32.801 32.992-65.792 65.792-32.992 32.801-65.792 65.792-32.801 29.94-60.071 4.005 2.097-30.703 61.216-65.602 32.991-32.991 65.793-65.792 32.801-32.801 65.792-65.793 32.991-32.991 65.602L107.111 509z"/><path d="M76.6 508.047l-4.006-1.907 8.2-16.782 65.793-32.801 32.801-65.792 65.792-32.801 32.991-65.793 65.793-32.991 32.801-65.792 65.792-32.801 32.801-65.792 16.782-8.2 1.907 4.004-15.257 7.628-32.991 65.602-65.602 32.991-32.991 65.793-65.793 32.8-32.8 65.793-65.793 32.991-32.991 65.602-65.602 32.991-7.628 15.257z"/><path d="M48.756 508.047l-4.004-1.907 17.544-35.28 65.793-32.801 32.8-65.793 65.793-32.8 32.991-65.793 65.793-32.991 32.8-65.793 65.793-32.8 32.801-65.793 35.28-17.544 1.907 4.005-33.755 16.972-32.991 65.602-65.602 32.991-32.991 65.792-65.793 32.801-32.801 65.793-65.792 32.991-32.991 65.602-65.602 32.991-16.973 33.755z"/><path d="M21.105 508.047l-4.005-1.908 26.698-53.778 65.793-32.8 32.8-65.793 65.793-32.801 32.991-65.792 65.792-32.991 32.801-65.793 65.793-32.8 32.8-65.793L492.139 31.1l1.908 4.005-52.253 26.126-32.991 65.792-65.602 32.801-32.992 65.792-65.792 32.801-32.801 65.792-65.792 32.992-32.801 65.602-65.792 32.991-26.126 52.253z"/><path d="M-16.273 509l-1.907-4.005 10.68-5.339 32.8-65.793 65.792-32.8 32.801-65.793 65.793-32.801 32.991-65.792 65.792-32.991 32.801-65.793 65.793-32.801 32.8-65.792 65.793-32.8 5.339-10.68L495-2.273l-5.912 12.014-65.792 32.992-32.992 65.792-65.601 32.801-32.992 65.792-65.792 32.801-32.801 65.792-65.792 32.992-32.801 65.601-65.792 32.992-32.992 65.792L-16.273 509z"/><path d="M-63.949 505.186l-2.097-4.005L-26 481.157l32.8-65.792 65.793-32.801 32.801-65.792 65.792-32.801 32.992-65.792 65.792-32.992 32.801-65.792 65.792-32.8 32.801-65.793L467.157-12l20.024-40.047 4.005 2.097L470.59-8.757l-65.792 32.992-32.992 65.792-65.601 32.801-32.992 65.792-65.792 32.801-32.801 65.792-65.792 32.992-32.801 65.601-65.793 32.992-32.991 65.792-41.192 20.596z"/><path d="M-63.949 477.343l-2.097-3.814 21.549-10.87 32.8-65.792 65.793-32.801 32.8-65.792 65.793-32.801 32.992-65.792 65.792-32.992 32.801-65.792 65.792-32.801 32.801-65.792 65.792-32.801 10.87-21.55 3.814 2.098-11.251 22.694L386.3 5.736 353.308 71.53l-65.601 32.8-32.992 65.793-65.792 32.801-32.801 65.792-65.793 32.991-32.8 65.602L-8.264 400.3l-32.991 65.792-22.694 11.251z"/><path d="M-63.949 449.692l-2.097-4.005 3.05-1.526 32.802-65.792 65.792-32.801 32.8-65.792 65.793-32.801 32.992-65.792 65.792-32.992 32.801-65.792 65.792-32.801 32.801-65.792 65.792-32.801 1.526-3.052 4.005 2.098-2.098 4.196-65.793 32.991-32.991 65.793-65.602 32.8-32.991 65.793-65.793 32.8-32.8 65.793-65.793 32.991-32.8 65.602-65.793 32.991-32.991 65.793-4.196 2.098z"/><path d="M-62.995 398.583L-67 396.676l18.307-36.805L17.1 327.07l32.991-65.792 65.602-32.801 32.991-65.793 65.793-32.991 32.801-65.602L313.07 31.1l32.801-65.793L382.676-53l1.907 4.005-35.28 17.735-32.991 65.792-65.602 32.801-32.991 65.793-65.793 32.8-32.8 65.793-65.793 32.991-32.8 65.602-65.793 32.991-17.735 35.28z"/><path d="M-63.949 344.805l-2.097-4.005 64.648-32.228 32.991-65.793 65.602-32.8 32.991-65.793 65.793-32.991 32.8-65.602 65.793-32.991L326.8-52.046l4.005 2.097-32.991 65.983-65.602 32.801-32.991 65.792-65.793 32.801-32.801 65.793-65.792 32.991-32.8 65.602-65.984 32.991z"/><path d="M-63.949 317.153l-2.097-4.004 46.15-23.075 32.991-65.793 65.602-32.801 32.991-65.792 65.792-32.991 32.801-65.602 65.793-32.992 23.075-46.15 4.004 2.098-23.837 47.485-65.602 32.8-32.992 65.793-65.792 32.801-32.8 65.792-65.793 32.992-32.8 65.602-47.486 23.837z"/><path d="M-63.949 289.311l-2.097-4.005 27.651-13.731 32.992-65.792 65.602-32.801L93.19 107.19l65.792-32.992 32.801-65.601 65.793-32.992 13.73-27.652 4.005 2.098-14.494 28.987-65.601 32.8-32.992 65.793-65.792 32.801-32.8 65.792-65.793 32.992-32.801 65.601-28.987 14.494z"/><path d="M-63.949 261.659l-2.097-4.005 9.153-4.577 32.992-65.792L41.7 154.484l32.992-65.792L140.484 55.7l32.801-65.6 65.792-32.992 4.577-9.154 4.005 2.098-5.34 10.489-65.601 32.8-32.992 65.793-65.792 32.8-32.801 65.793-65.792 32.992-32.801 65.601-10.489 5.34z"/><path d="M-62.995 219.895L-67 217.797l24.6-49.01 65.602-32.801 32.992-65.792 65.792-32.992 32.801-65.601L203.797-53l2.098 4.005-47.675 23.838-32.992 65.792-65.792 32.8-32.801 65.793-65.792 32.992-23.838 47.675z"/><path d="M-62.995 164.401L-67 162.303l6.102-12.014 65.602-32.801 32.992-65.792 65.792-32.992 32.801-65.601L148.303-53l2.098 4.005-10.68 5.34-32.991 65.792-65.792 32.8L8.137 120.73l-65.793 32.991-5.34 10.68z"/><path d="M-63.949 129.121l-2.097-4.005 52.252-26.126 32.992-65.793L84.99.206l26.126-52.253 4.005 2.098L88.231 3.64l-65.792 32.8-32.8 65.793-53.588 26.889z"/><path d="M-63.949 101.278l-2.097-4.005 33.754-16.781L.699 14.699l65.793-32.991 16.781-33.755 4.005 2.098-17.544 35.09L3.94 17.94l-32.8 65.793-35.09 17.544z"/><path d="M-63.949 73.626l-2.097-4.004 15.256-7.629L-17.8-3.799 47.994-36.79l7.628-15.257 4.004 2.098-8.39 16.591L-14.558-.557l-32.8 65.792-16.592 8.391zm.954-32.61L-67 39.11l30.703-61.406L25.11-53l1.907 4.005-60.071 29.94-29.94 60.071z"/></g></svg>
